X: 3364
M: C
L: 1/8
K: Bb
(bg) |\
fdcd BGFE | D2B,2B,2 (BA) |\
fdcd BGFE | D2B,2B,2 (BA) |\
|: (FE) |\
bd=eg fAcd | de=ef c2 (fe) |\
dbca BgAf | GeFd EcDB |\


